style/sdf/martini_glass.svg

<?xml version="1.0" encoding="UTF-8" standalone="no"?>
<svg
   width="16"
   height="16"
   version="1.1"
   id="svg367"
   sodipodi:docname="martini_glass.svg"
   inkscape:export-filename="\\wsl$\Ubuntu-20.04\home\brian\git\openstreetmap-americana\style\sdf\martini_glass.png"
   inkscape:export-xdpi="96"
   inkscape:export-ydpi="96"
   inkscape:version="1.1.2 (b8e25be833, 2022-02-05)"
   xmlns:inkscape="http://www.inkscape.org/namespaces/inkscape"
   xmlns:sodipodi="http://sodipodi.sourceforge.net/DTD/sodipodi-0.dtd"
   xmlns="http://www.w3.org/2000/svg"
   xmlns:svg="http://www.w3.org/2000/svg">
  <defs
     id="defs371" />
  <sodipodi:namedview
     id="namedview369"
     pagecolor="#ffffff"
     bordercolor="#666666"
     borderopacity="1.0"
     inkscape:pageshadow="2"
     inkscape:pageopacity="0.0"
     inkscape:pagecheckerboard="0"
     showgrid="false"
     inkscape:zoom="51.4375"
     inkscape:cx="8"
     inkscape:cy="8.0097205"
     inkscape:window-width="1904"
     inkscape:window-height="993"
     inkscape:window-x="-69"
     inkscape:window-y="183"
     inkscape:window-maximized="0"
     inkscape:current-layer="svg367" />
  <path
     d="m2 4 5 6.666v3.334h-2v2h6v-2h-2v-3.334l5-6.666h-12z"
     fill-rule="evenodd"
     stroke-width=".70711"
     id="path363" />
  <path
     d="m10.5 3.5 2-3"
     fill="none"
     stroke="#000"
     stroke-width="1px"
     id="path365" />
</svg>

<?xml version="1.0" encoding="UTF-8" standalone="no"?>
<svg
   width="16"
   height="16"
   version="1.1"
   id="svg4"
   sodipodi:docname="martini_bar.svg"
   inkscape:version="1.1.2 (b8e25be833, 2022-02-05)"
   xmlns:inkscape="http://www.inkscape.org/namespaces/inkscape"
   xmlns:sodipodi="http://sodipodi.sourceforge.net/DTD/sodipodi-0.dtd"
   xmlns="http://www.w3.org/2000/svg"
   xmlns:svg="http://www.w3.org/2000/svg">
  <defs
     id="defs8" />
  <sodipodi:namedview
     id="namedview6"
     pagecolor="#ffffff"
     bordercolor="#666666"
     borderopacity="1.0"
     inkscape:pageshadow="2"
     inkscape:pageopacity="0.0"
     inkscape:pagecheckerboard="0"
     showgrid="true"
     inkscape:zoom="22.627417"
     inkscape:cx="9.4354561"
     inkscape:cy="15.998291"
     inkscape:window-width="1920"
     inkscape:window-height="1009"
     inkscape:window-x="-8"
     inkscape:window-y="-8"
     inkscape:window-maximized="1"
     inkscape:current-layer="svg4">
    <inkscape:grid
       type="xygrid"
       id="grid90"
       snapvisiblegridlinesonly="true"
       spacingx="0.5"
       spacingy="0.5"
       empspacing="2" />
  </sodipodi:namedview>
  <path
     id="rect116"
     style="fill:#000000;fill-rule:evenodd;stroke-width:0.707107"
     d="M 2 4 L 7 10.666016 L 7 14 L 5 14 L 5 16 L 11 16 L 11 14 L 9 14 L 9 10.666016 L 14 4 L 2 4 z " />
  <path
     style="fill:none;stroke:#000000;stroke-width:1px;stroke-linecap:butt;stroke-linejoin:miter;stroke-opacity:1"
     d="m 10.5,3.5 2,-3"
     id="path586" />
</svg>
